X:1
T:The Last Mile of the Way
T:The Last Mile of the Way
T:William Edie Marks
T:Johnson Oatman, Jr, 1908
T:Public Domain Courtesy of the Cyber Hymnal™
C:William Edie Marks
Z:Public Domain
Z:Courtesy of the Cyber Hymnal™
%%score ( 1 2 ) ( 3 4 )
L:1/8
Q:1/4=90
M:6/8
K:F
V:1 treble 
V:2 treble 
V:3 bass 
V:4 bass 
V:1
 F/[FG]/ | [FA]>[FA][FA] [FA][CG][CF] | [CE] [EG]4 [EG]/[FA]/ | [GB]>[GB][GB] [GB][FA][EG] | %4
w: 1.~If I|walk in the path- way of|du- ty, If I|work till the close of the|
w: 2.~If for|Christ I pro- claim the glad|sto- ry, If I|seek for His sheep gone a-|
w: 3.~Here the|dear- est of ties we must|sev- er, Tears of|sor- row are seen ev- ’ry|
w: 4.~And if|here I have ear- nest- ly|striv- en, And have|tried all His will to o-|
 [FA]3- [FA]2 [FA]/[GB]/ | [Ac]>[Ac][Ac] [Fc][FB][_EA] | [DG] [GB]4 [DA]/[DG]/ | %7
w: day; * I shall|see the great King in His|beau- ty, When I’ve|
w: stray, * I am|sure He will show me His|glo- ry, When I’ve|
w: day; * But no|sick- ness, no sigh- ing for-|ev- er, When I’ve|
w: bey, * ’Twill en-|hance all the rap- ture of|Hea- ven, When I’ve|
 [CF]>[CF][CF] [CE][CF][EG] | F3- F2 ||"^Refrain" [FA]/[FB]/ | [Fc]>[Fc][Fc] [^Fd][Fc][FA] | %11
w: gone the last mile of the|way. *|||
w: gone the last mile of the|way. *|||
w: gone the last mile of the|way. *|When I’ve|gone the last mile of the|
w: gone the last mile of the|way. *|||
 B3- [GB]2 [EG]/[FA]/ | [EB]>[EB][EB] [Ec][EB][EG] | A3- [FA]2 [FA]/[GB]/ | %14
w: |||
w: |||
w: way, I will rest|* at the close of the|day, And I know|
w: |||
 [Ac]>[Ac][Ac] [Fc][FB][_EA] | [DG] [GB]4 [DA]/[DG]/ | [CF]>[CF][CF] [CE][CF][EG] | F3- F2 |] %18
w: ||||
w: ||||
w: * there are joys that a-|wait me, When I’ve|gone the last mile of the|way. *|
w: ||||
V:2
 F/ x/ | x6 | x6 | x6 | x6 | x6 | x6 | x6 | F3- F2 || x | x6 | G>GG x3 | x6 | F>FF x3 | x6 | x6 | %16
 x6 | F3- F2 |] %18
V:3
 [F,A,]/[F,B,]/ | [F,C]>[F,C][F,C] [F,C][F,B,][F,A,] | [C,G,] [C,C]4 [C,C]/[C,C]/ | %3
 [C,C]>[C,C][C,C] [C,C][C,C][C,C] | [F,C]3- [F,C]2 [F,C]/[F,C]/ | %5
 [F,C]>[F,C][F,C] [F,_E][F,D][F,C] | [B,,B,] [B,,D]4 [B,,C]/[B,,B,]/ | %7
 [C,A,]>[C,A,][C,A,] [C,G,][C,A,][C,B,] | [F,A,]3- [F,A,]2 || F,/[F,G,]/ | %10
 [F,A,]>[F,A,][F,A,] [D,A,][D,D][D,D] | ([G,D]>[G,D][G,D] [G,D]2) [B,C]/[A,C]/ | %12
 [G,C]>[G,C][G,C] [C,C][C,C][C,C] | ([F,C]>[F,C][F,C] [F,C]2) [F,C]/[F,C]/ | %14
 [F,C]>[F,C][F,C] [F,_E][F,D][F,C] | [B,,B,] [B,,D]4 [B,,C]/[B,,B,]/ | %16
 [C,A,]>[C,A,][C,A,] [C,G,][C,A,][C,B,] | [F,A,]3- [F,A,]2 |] %18
V:4
 x | x6 | x6 | x6 | x6 | x6 | x6 | x6 | x5 || F,/ x/ | x6 | x6 | x6 | x6 | x6 | x6 | x6 | x5 |] %18

